X:1
T:Menuet G major (A = 415 Hz)
T:Anh. 116
T:Attributed to J. S. Bach
%%score { 1 | 2 }
L:1/8
M:3/4
K:G
V:1 treble nm="Harp"
V:2 bass 
V:1
 GBdgAf | g2 G2 G2 | GBdgAf | g2 G2 G2 | e2 e2 eg | d2 d2 dg | c2 dcBc | A6 | GBdgAf | g2 G2 G2 | %10
 GBdgAf | g2 G2 G2 | e2 dcBA | d2 cBAG | (3ABc D2 F2 | G6 | GABAGF | G2 E2 E2 | gfegfe | f2 B2 B2 | %20
 gfegfe | f2 B2 e2 | (3fga B2 ^d2 | e2 ^de f2 | g2 gfed | e2 edcB | c2 cBAG | F2 EF D2 | A2 D2 D2 | %29
 B2 D2 D2 | c2 dcBc | A6 | GBdgAf | g2 G2 G2 | GBdgAf | g2 G2 G2 | e2 dcBA | d2 cBAG | %38
 (3ABc D2 F2 | G6 |] %40
V:2
 G,4 D,2 | G,,B,,D,G,D,B,, | G,,4 D,2 | G,,B,,D,G,D,B,, | C,2 G,2 C,2 | B,,2 G,2 B,,2 | %6
 A,,2 F,2 G,2 | D,E,F,D,E,F, | G,4 D,2 | G,,B,,D,G,D,B,, | G,,4 D,2 | G,,B,,D,G,D,B,, | %12
 C,2 E,2 G,2 | B,,2 D,2 G,2 | C,2 C,2 D,2 | G,2 D,2 G,,2 | E,2 ^D,2 B,,2 | E,2 B,,2 E,,2 | %18
 E,2 G,2 B,2 | B,,^D,F,B,F,D, | E,2 G,2 B,2 | B,,2 A,2 G,2 | A,2 B,2 B,,2 | E,6 | B,,2 D,2 G,2 | %25
 C,2 D,2 E,2 | A,,2 B,,2 C,2 | D,2 A,,2 D,,2 | F,D,F,D,F,D, | G,D,G,D,G,D, | F,2 D,2 G,2 | %31
 D,E,F,D,E,F, | G,4 D,2 | G,,B,,D,G,D,B,, | G,,4 D,2 | G,,B,,D,G,D,B,, | C,2 E,2 G,2 | %37
 B,,2 D,2 G,2 | C,4 D,2 | G,2 D,2 G,,2 |] %40

